X:1
T:Mi predice il Ciel
T:Mi predice il Ciel
T:Loreto Vittori
T:Source : Arie a voce sola del Cavalier Loreto Vittorii---Venetia---A.Vincenti---1649. Editor : André Vierendeels (17/10/15).
T:Notes : Original clefs : C1, F4 Figures in BC are notated in original print
C:Vittorio Loreto
%%score 1 2
L:1/8
Q:1/4=90
M:6/4
K:C
V:1 treble nm="Soprano" snm="S"
V:2 bass nm="BC" snm="BC"
V:1
 z2 c3 d e2 e2 d2 | c2 B2 cd c4 A2 | z2 c2 c2 B4 A2 | A4 AB B4 B2 | z2 B2 c2 d4 d2 | %5
w: Mi pre- di- ce il|Ciel d'un _ _ vol- to|con due Stel- le|al- m'e ri- den- ti,|ch'io nel mar de|
w: So ben' io ch'il bel|Se- re- * * * no|non e sta- bi-|l'e non _ du- ra,|e per fie- r'as-|
 d2 ^c2 de d4 =c2 | c4 B2 B4 B2- | B2 B3 A A4 B2 | B4 B2 B4 B2 | cd B3 A A4 A2 :: z2 E2 F2 G4 G2 | %11
w: mie- i tor- * men- ti|pur al fin ca-|* dio se- pol- to,|pur al fin ca-|dio _ _ se- pol- to.|Ben che fi- da|
w: pra sven- * * tu- ra,|quan- do ri- de'al-|* lor vien me- no,|quan- do ri- de'al-|* * lor vien me- no.|E pro- cel- le|
 G2 AF GA G4 G2 | z2 A2 B2 c4 c2 | c4 B2 B2 cB cd | ef ed cB A2 B2 c2 | c4 B2 c2 e4 | z6 e6 | %17
w: Tra- mon- * * * ta- na|à me spia- na|quel- la via ch'ad- * * *|du- * * * * * * ce al|li- do, * ahi,|ahi,|
w: fu- ri- * * * bon- de|den- tro l'on- de|d'un bel sen' tro- * * *|va'un _ _ _ _ _ _ _ cor|fi- de, _ ahi,|ahi,|
 z2 c2 B2 A2 G2 F2 | E3 D EF GA BG AB | cB cd ef ga gf ed | e2 c2 z4 g2 f2 | e2 d2 c2 d2 d2 e2 | %22
w: ahi, che sem- pre hà|tem- * pe- * * * * * * *||* ste, tem- pe-|* * * * ste il|
w: ahi, * * * *|||||
 fg fe dc B2 ef ed | cd cB A2 de dc BA | ^G2 A2 B2 c2 B4 | !fermata!A12 :| %26
w: ma- * * * * * * * * * *||* re in- fi- *|do.|
w: ||||
V:2
 A,,4 B,,2 C,4 D,2 |"^4   3" E,6 A,,6 | A,,6 B,,4 C,2 |"^4   3" D,6 G,,6 | G,6 ^F,4 G,2 | %5
"^4   3" A,6 D,4 E,2 |"^6" F,4 G,2 A,4 D,2- |"^4   3" D,2 E,4 A,4 G,2 | F,4 E,2 D,4 F,2- | %9
"^4   3" F,2 E,4 A,,6 ::"^6" A,6 B,6 | C2 F,4 C6- | C2 B,4 A,4 G,2 | ^F,6 G,2 F,4 | %14
"^6" E,6 F,2 G,2 A,2 |"^4  3" G,2 G,,4 C,4 D,2 |"^#" E,4 ^F,2 ^G,4 E,2 | A,4 G,2 F,2 E,2 D,2 | %18
"^6" C,6 B,,6 | A,,6 G,,6 |"^6" C,6 B,,6 | C,2 B,,2 A,,2 G,,2 F,2 E,2 |"^#" D,6 E,6 |"^#" F,6 D,6 | %24
"^4    3""^#" E,2 C,2 D,2 E,6 | !fermata!A,,12 :| %26

